!!!SOCIAL_FUNCTION:	songs of social dance
!!!PDT:	1939
!!!OTL: No_76_Youngest_Daughter's_Dance_Song.krn
!!!LANG: Non-Tone
!!!LING_GROUP: Wakashan
!!!REG: Pacific Northwest
**kern
*staff1
=1-
*clefF4
*k[b-e-]
*M2/4
4r
8r
16r
16G\
=2
4.B-\
8c\
=3||
*M3/4
4.B-\
8G\
8G\L
16G\Jk
16r
=4||
*M2/4
4B-\
8c\L
8B-\J
=5
8.B-\L
16G\Jk
8G\L
8G\J
=6||
*M3/4
8.B-\L
16B-\Jk
4.B-\
8B-\
=7||
*M2/4
4B-\
12G\L
12G\
24G\Jk
24r
=8||
*M3/8
8.B-\L
16c\K
8B-\J
=9||
*M2/4
4B-\
8G\L
8G\J
=10||
*M3/8
8.B-\L
16c\K
8G\J
=11||
*M2/4
4G\
8G\L
16G\Jk
16r
=12
8.G\L
16G\Jk
[4G\
=13
8.G\L]
16G\Jk
4G\
=14
12B-\L
12G\
12G\J
8G\
8r
=15
4G\
8G\L
8G\J
=16
4G\
4G\
=17||
*M3/4
4D\
8D\
8r
8r
8G\
=18||
*M2/4
4.G\
8G\
=19
4G\
4r
=20
8B-\L
8B-\J
8.B-\L
16G\Jk
=21
8G\L
8G\J
4G\
=22
8G\L
8G\J
8.G\L
16G\Jk
=23
4G\
8G\
8r
==
*-
